X: 35
M: 6/8
L: 1/8
K: D
V: 1
dfa gfe | d2A BGB | AFA AGF | {F}E3 DFA |\
dfa gec | d2A BGB | AFA GFE | D3 :|
|: Ad=c |\
dfa gec | d2A BGE | AFD EDC | D3 :|
V: 2 clef=bass middle=d
z2z | d2f a2g | f3 g3 | f3 fed |
|: f3 | g3 ^g3 | a3 A3 | d3 d3 A3
z2z | d2f a2g | f2f g3 | f3 g2a | d3 :|


